svg/laravel.svg

<svg data-name="Layer 1" xmlns="http://www.w3.org/2000/svg" viewBox="0 0 20 20"><path fill="#f55247" d="M0 0h20v20H0z"/><path d="M15 8h-2a1 1 0 0 0-1 1v4H8V4a1 1 0 0 0-1-1H5a1 1 0 0 0-1 1v9a1 1 0 0 0 1 1h2v2a1 1 0 0 0 1 1h4a1 1 0 0 0 1-1v-2h2a1 1 0 0 0 1-1V9a1 1 0 0 0-1-1zm-8 5H5V4h2zm5 3H8v-2h4zm3-3h-2V9h2z" fill="#fff"/></svg>

<svg id="Layer_1" data-name="Layer 1" xmlns="http://www.w3.org/2000/svg" viewBox="0 0 20 20"><defs><style>.cls-1{fill:#f55247;}.cls-2{fill:#fff;}</style></defs><title>laravel</title><rect class="cls-1" width="20" height="20"/><path class="cls-2" d="M15,8H13a1,1,0,0,0-1,1v4H8V4A1,1,0,0,0,7,3H5A1,1,0,0,0,4,4v9a1,1,0,0,0,1,1H7v2a1,1,0,0,0,1,1h4a1,1,0,0,0,1-1V14h2a1,1,0,0,0,1-1V9A1,1,0,0,0,15,8ZM7,13H5V4H7Zm5,3H8V14h4Zm3-3H13V9h2Z"/></svg>
